packages/tokens/icons/heartFilled/size32Px.svg

<svg viewBox="0 0 32 32" fill="none" xmlns="http://www.w3.org/2000/svg" width="1em" height="1em"><path d="M27.8966 6.56266C24.9475 3.3077 19.9928 3.1296 16.8303 6.16495L16 6.96157L15.1696 6.16495C12.0072 3.1296 7.05248 3.3077 4.10339 6.56266C1.15429 9.81761 1.32733 14.9184 4.49018 17.9526L4.51954 17.9808L15.3075 28.3354C15.6945 28.7068 16.3055 28.7068 16.6924 28.3354L27.4808 17.9808L27.5102 17.9526C30.6726 14.9184 30.8457 9.81761 27.8966 6.56266Z" fill="currentColor"/></svg>

<svg xmlns="http://www.w3.org/2000/svg" fill="none" viewBox="0 0 32 32" width="1em" height="1em"><path fill="currentColor" d="M27.897 6.563c-2.95-3.255-7.904-3.433-11.067-.398l-.83.797-.83-.797c-3.163-3.035-8.118-2.857-11.067.398-2.949 3.255-2.776 8.355.387 11.39l.03.028 10.787 10.354a1 1 0 0 0 1.385 0l10.789-10.354.03-.028c3.162-3.035 3.335-8.135.386-11.39Z"/></svg>
